;FLAVOR:Marlin
;TIME:1122
;Filament used: 0.973799m
;Layer height: 0.21875
;MINX:48.579
;MINY:51.269
;MINZ:0.263
;MAXX:76.413
;MAXY:73.099
;MAXZ:25.229
;POSTPROCESSED
;Generated with Cura_SteamEngine 4.6.1
M140 S65
M105
M190 S65
M104 S205
M105
M109 S205
M82 ;absolute extrusion mode
G21;(metric values)
G90;(absolute positioning)
M82;(set extruder to absolute mode)
M107;(start with the fan off)
G28;(Home the printer)
G92 E0;(Reset the extruder to 0)
G0 Z5 E5 F500;(Move up and prime the nozzle)
G0 X-1 Z0;(Move outside the printable area)
G1 Y60 E8 F500;(Draw a priming/wiping line to the rear)
G1 X-1;(Move a little closer to the print area)
G1 Y10 E16 F500;(draw more priming/wiping)
G1 E15 F250;(Small retract)
G92 E0;(Zero the extruder)
G92 E0
G92 E0
G1 F2400 E-2.5
;LAYER_COUNT:115
;LAYER:0
M107
G0 F4320 X51.977 Y53.462 Z0.263
;TYPE:SKIRT
G1 F2400 E0
G1 F1800 X52.329 Y53.156 E0.01785
G1 X52.767 Y52.815 E0.03909
G1 X53.08 Y52.598 E0.05367
G1 X53.659 Y52.251 E0.0795
G1 X53.995 Y52.079 E0.09395
G1 X54.615 Y51.813 E0.11977
G1 X55.104 Y51.64 E0.13962
G1 X55.893 Y51.43 E0.17086
G1 X56.302 Y51.356 E0.18677
G1 X57.14 Y51.275 E0.21899
G1 X57.602 Y51.269 E0.23667
G1 X58.238 Y51.301 E0.26104
G1 X59.274 Y51.478 E0.30126
G1 X60.181 Y51.732 E0.33731
G1 X60.51 Y51.858 E0.35079
G1 X61.06 Y52.107 E0.3739
G1 X61.868 Y52.569 E0.40952
G1 X62.496 Y53.025 E0.43922
G1 X63.056 Y52.615 E0.46578
G1 X63.834 Y52.158 E0.50031
G1 X64.56 Y51.828 E0.53083
G1 X64.858 Y51.716 E0.54301
G1 X65.46 Y51.532 E0.5671
G1 X65.802 Y51.45 E0.58056
G1 X66.39 Y51.345 E0.60342
G1 X66.737 Y51.304 E0.61679
G1 X67.419 Y51.27 E0.64293
G1 X67.886 Y51.278 E0.6608
G1 X68.703 Y51.358 E0.69222
G1 X69.112 Y51.432 E0.70812
G1 X69.679 Y51.569 E0.73045
G1 X70.462 Y51.835 E0.76209
G1 X70.735 Y51.95 E0.77343
G1 X71.344 Y52.256 E0.79951
G1 X71.805 Y52.528 E0.82
G1 X72.326 Y52.881 E0.84408
G1 X72.93 Y53.373 E0.8739
G1 X73.585 Y54.03 E0.9094
G1 X73.985 Y54.502 E0.93308
G1 X74.3 Y54.915 E0.95296
G1 X74.511 Y55.223 E0.96724
G1 X74.807 Y55.712 E0.98912
G1 X75.126 Y56.313 E1.01516
G1 X75.453 Y57.028 E1.04525
G1 X75.734 Y57.786 E1.07619
G1 X76.024 Y58.813 E1.11703
G1 X76.234 Y59.845 E1.15733
G1 X76.345 Y60.677 E1.18945
G1 X76.406 Y61.543 E1.22268
G1 X76.413 Y62.627 E1.26416
G1 X76.362 Y63.509 E1.29797
G1 X76.264 Y64.336 E1.32984
G1 X76.116 Y65.155 E1.36169
G1 X75.922 Y65.959 E1.39335
G1 X75.614 Y66.923 E1.43207
G1 X75.298 Y67.703 E1.46428
G1 X75.063 Y68.184 E1.48477
G1 X74.762 Y68.725 E1.50846
G1 X74.239 Y69.531 E1.54523
G1 X73.861 Y70.02 E1.56889
G1 X73.561 Y70.363 E1.58632
G1 X73.19 Y70.744 E1.60668
G1 X72.89 Y71.022 E1.62233
G1 X72.405 Y71.42 E1.64634
G1 X71.988 Y71.72 E1.666
G1 X71.421 Y72.073 E1.69156
G1 X70.598 Y72.474 E1.7266
G1 X70.223 Y72.621 E1.74201
G1 X69.658 Y72.805 E1.76475
G1 X68.875 Y72.984 E1.79549
G1 X68.583 Y73.03 E1.8068
G1 X67.876 Y73.091 E1.83396
G1 X67.385 Y73.099 E1.85275
G1 X66.525 Y73.04 E1.88574
G1 X66.086 Y72.972 E1.90274
G1 X65.394 Y72.815 E1.9299
G1 X64.974 Y72.688 E1.94669
G1 X64.257 Y72.41 E1.97612
G1 X63.838 Y72.21 E1.99389
G1 X63.274 Y71.895 E2.01861
G1 X62.635 Y71.458 E2.04824
G1 X62.497 Y71.35 E2.05494
G1 X62.109 Y71.639 E2.07346
G1 X61.567 Y71.983 E2.09803
G1 X61.145 Y72.215 E2.11646
G1 X60.31 Y72.581 E2.15135
G1 X59.742 Y72.771 E2.17427
G1 X58.89 Y72.976 E2.2078
G1 X58.453 Y73.042 E2.22472
G1 X57.614 Y73.098 E2.2569
G1 X57.115 Y73.09 E2.276
G1 X56.322 Y73.015 E2.30648
G1 X55.413 Y72.823 E2.34203
G1 X55.077 Y72.724 E2.35544
G1 X54.478 Y72.506 E2.37983
G1 X53.647 Y72.108 E2.4151
G1 X53.33 Y71.925 E2.4291
G1 X52.756 Y71.54 E2.45555
G1 X52.31 Y71.194 E2.47716
G1 X51.84 Y70.78 E2.50113
G1 X51.591 Y70.532 E2.51458
G1 X51.18 Y70.069 E2.53827
G1 X50.797 Y69.581 E2.56201
G1 X50.479 Y69.128 E2.58319
G1 X50.041 Y68.387 E2.61613
G1 X49.638 Y67.544 E2.65189
G1 X49.392 Y66.923 E2.67745
G1 X49.176 Y66.298 E2.70276
G1 X48.946 Y65.441 E2.73672
G1 X48.783 Y64.629 E2.76841
G1 X48.669 Y63.822 E2.7996
G1 X48.6 Y62.974 E2.83216
G1 X48.579 Y62.177 E2.86268
G1 X48.627 Y61.012 E2.9073
G1 X48.71 Y60.207 E2.93827
G1 X48.896 Y59.166 E2.97874
G1 X49.156 Y58.147 E3.01899
G1 X49.313 Y57.663 E3.03846
G1 X49.583 Y56.952 E3.06756
G1 X49.924 Y56.202 E3.09909
G1 X50.292 Y55.537 E3.12818
G1 X50.856 Y54.707 E3.16658
G1 X51.191 Y54.285 E3.1872
G1 X51.486 Y53.952 E3.20423
G0 F1620 X51.506 Y53.929
G0 X51.977 Y53.462
G0 F4320 X52.207 Y53.726
G1 F1800 X52.559 Y53.42 E3.22208
G1 X52.967 Y53.103 E3.24185
G1 X53.28 Y52.886 E3.25643
G1 X53.819 Y52.563 E3.28048
G1 X54.155 Y52.391 E3.29492
G1 X54.732 Y52.143 E3.31896
G1 X55.221 Y51.97 E3.33881
G1 X55.956 Y51.774 E3.36792
G1 X56.365 Y51.7 E3.38382
G1 X57.145 Y51.625 E3.41381
G1 X57.607 Y51.619 E3.43149
G1 X58.514 Y51.695 E3.46633
G1 X59.212 Y51.822 E3.49348
G1 X60.056 Y52.059 E3.52703
G1 X60.385 Y52.185 E3.54051
G1 X60.897 Y52.416 E3.56201
G1 X61.672 Y52.858 E3.59615
G1 X61.991 Y53.075 E3.61092
G1 X62.449 Y53.43 E3.63309
G1 X62.502 Y53.476 E3.63578
G1 X62.733 Y53.283 E3.6473
G1 X63.243 Y52.911 E3.67146
G1 X63.988 Y52.473 E3.70453
G1 X64.683 Y52.156 E3.73376
G1 X64.981 Y52.044 E3.74595
G1 X65.541 Y51.872 E3.76836
G1 X65.883 Y51.79 E3.78182
G1 X66.431 Y51.693 E3.80312
G1 X66.778 Y51.652 E3.81649
G1 X67.413 Y51.62 E3.84083
G1 X67.88 Y51.628 E3.8587
G1 X68.64 Y51.702 E3.88792
G1 X69.049 Y51.776 E3.90383
G1 X69.577 Y51.904 E3.92462
G1 X70.326 Y52.158 E3.95489
G1 X70.599 Y52.273 E3.96623
G1 X71.166 Y52.558 E3.99051
G1 X71.627 Y52.83 E4.011
G1 X72.113 Y53.158 E4.03344
G1 X72.692 Y53.63 E4.06202
G1 X73.318 Y54.256 E4.0959
G1 X73.718 Y54.728 E4.11958
G1 X74.222 Y55.421 E4.15237
G1 X74.498 Y55.876 E4.17274
G1 X74.817 Y56.477 E4.19878
G1 X75.132 Y57.167 E4.22781
G1 X75.404 Y57.902 E4.2578
G1 X75.686 Y58.903 E4.2976
G1 X75.89 Y59.911 E4.33696
G1 X75.998 Y60.718 E4.36812
G1 X76.057 Y61.564 E4.40057
G1 X76.063 Y62.626 E4.44122
G1 X76.013 Y63.485 E4.47415
G1 X75.917 Y64.291 E4.50521
G1 X75.773 Y65.09 E4.53628
G1 X75.583 Y65.874 E4.56715
G1 X75.282 Y66.811 E4.60481
G1 X74.976 Y67.566 E4.63599
G1 X74.757 Y68.014 E4.65508
G1 X74.456 Y68.555 E4.67877
G1 X73.949 Y69.334 E4.71434
G1 X73.598 Y69.79 E4.73636
G1 X72.953 Y70.488 E4.77273
G1 X72.653 Y70.766 E4.78838
G1 X72.2 Y71.136 E4.81077
G1 X71.783 Y71.436 E4.83043
G1 X71.256 Y71.765 E4.8542
G1 X70.47 Y72.148 E4.88766
G1 X70.095 Y72.295 E4.90308
G1 X69.57 Y72.466 E4.92421
G1 X68.82 Y72.638 E4.95366
G1 X68.528 Y72.684 E4.96497
G1 X67.87 Y72.741 E4.99025
G1 X67.379 Y72.749 E5.00904
G1 X66.579 Y72.694 E5.03973
G1 X66.14 Y72.626 E5.05673
G1 X65.495 Y72.48 E5.08204
G1 X65.075 Y72.353 E5.09883
G1 X64.408 Y72.094 E5.12621
G1 X63.989 Y71.894 E5.14398
G1 X63.463 Y71.601 E5.16702
G1 X62.85 Y71.182 E5.19544
G1 X62.498 Y70.897 E5.21277
G1 X61.903 Y71.356 E5.24153
G1 X61.398 Y71.677 E5.26443
G1 X60.976 Y71.909 E5.28286
G1 X60.199 Y72.249 E5.31532
G1 X59.631 Y72.439 E5.33824
G1 X58.838 Y72.63 E5.36946
G1 X58.401 Y72.696 E5.38637
G1 X57.619 Y72.748 E5.41636
G1 X57.12 Y72.74 E5.43546
G1 X56.382 Y72.67 E5.46383
G1 X55.512 Y72.487 E5.49785
G1 X55.176 Y72.388 E5.51126
G1 X54.618 Y72.185 E5.53398
G1 X53.822 Y71.805 E5.56774
G1 X53.505 Y71.622 E5.58175
G1 X52.971 Y71.263 E5.60637
G1 X52.525 Y70.917 E5.62798
G1 X52.087 Y70.532 E5.65029
G1 X51.838 Y70.284 E5.66374
G1 X51.455 Y69.853 E5.68581
G1 X51.072 Y69.365 E5.70955
G1 X50.777 Y68.943 E5.72925
G1 X50.353 Y68.228 E5.76107
G1 X49.963 Y67.415 E5.79557
G1 X49.717 Y66.794 E5.82114
G1 X49.508 Y66.188 E5.84567
G1 X49.285 Y65.356 E5.87863
G1 X49.127 Y64.564 E5.90954
G1 X49.016 Y63.777 E5.93996
G1 X48.949 Y62.949 E5.97175
G1 X48.929 Y62.171 E6.00153
G1 X48.976 Y61.03 E6.04523
G1 X49.058 Y60.247 E6.07536
G1 X49.24 Y59.232 E6.11483
G1 X49.494 Y58.238 E6.15409
G1 X49.64 Y57.788 E6.17219
G1 X49.91 Y57.077 E6.2013
G1 X50.239 Y56.354 E6.2317
G1 X50.595 Y55.713 E6.25976
G1 X51.141 Y54.91 E6.29692
G1 X51.453 Y54.517 E6.31613
G1 X51.718 Y54.217 E6.33144
G0 F1620 X51.768 Y54.161
G0 X52.207 Y53.726
G0 F4320 X52.437 Y53.99
G1 F1800 X52.789 Y53.684 E6.34929
G1 X53.479 Y53.174 E6.38213
G1 X53.978 Y52.875 E6.40439
G1 X54.314 Y52.703 E6.41884
G1 X54.849 Y52.473 E6.44112
G1 X55.338 Y52.3 E6.46098
G1 X56.018 Y52.119 E6.4879
G1 X56.427 Y52.045 E6.50381
G1 X57.149 Y51.975 E6.53157
G1 X57.611 Y51.969 E6.54925
G1 X58.451 Y52.04 E6.58152
G1 X59.149 Y52.167 E6.60867
G1 X59.931 Y52.385 E6.63973
G1 X60.26 Y52.511 E6.65322
G1 X60.734 Y52.726 E6.67314
G1 X61.475 Y53.148 E6.70577
G1 X61.794 Y53.365 E6.72054
G1 X62.219 Y53.693 E6.74108
G1 X62.499 Y53.939 E6.75534
G1 X62.957 Y53.552 E6.77829
G1 X63.43 Y53.207 E6.8007
G1 X64.142 Y52.787 E6.83233
G1 X64.806 Y52.484 E6.86026
G1 X65.623 Y52.213 E6.89321
G1 X66.472 Y52.04 E6.92636
G1 X66.819 Y51.999 E6.93974
G1 X67.407 Y51.97 E6.96227
G1 X67.874 Y51.978 E6.98014
G1 X68.578 Y52.047 E7.00721
G1 X68.987 Y52.121 E7.02312
G1 X69.476 Y52.239 E7.04237
G1 X70.19 Y52.48 E7.07121
G1 X70.463 Y52.595 E7.08255
G1 X70.988 Y52.859 E7.10504
G1 X71.449 Y53.131 E7.12552
G1 X71.899 Y53.435 E7.1463
G1 X72.454 Y53.887 E7.1737
G1 X73.051 Y54.482 E7.20595
G1 X73.451 Y54.954 E7.22963
G1 X73.933 Y55.618 E7.26103
G1 X74.188 Y56.04 E7.2799
G1 X74.507 Y56.641 E7.30594
G1 X74.811 Y57.307 E7.33396
G1 X75.073 Y58.018 E7.36295
G1 X75.348 Y58.993 E7.40172
G1 X75.546 Y59.976 E7.4401
G1 X75.65 Y60.76 E7.47037
G1 X75.707 Y61.585 E7.50201
G1 X75.713 Y62.625 E7.54181
G1 X75.664 Y63.46 E7.57382
G1 X75.57 Y64.246 E7.60412
G1 X75.429 Y65.024 E7.63438
G1 X75.243 Y65.788 E7.66447
G1 X74.95 Y66.699 E7.70109
G1 X74.654 Y67.429 E7.73124
G1 X74.451 Y67.844 E7.74892
G1 X74.15 Y68.385 E7.77261
G1 X73.66 Y69.137 E7.80696
G1 X73.334 Y69.559 E7.82737
G1 X72.715 Y70.231 E7.86234
G1 X72.415 Y70.509 E7.87799
G1 X71.996 Y70.851 E7.89869
G1 X71.579 Y71.151 E7.91835
G1 X71.091 Y71.456 E7.94037
G1 X70.343 Y71.822 E7.97224
G1 X69.968 Y71.969 E7.98765
G1 X69.481 Y72.128 E8.00726
G1 X68.766 Y72.293 E8.03534
G1 X68.474 Y72.339 E8.04665
G1 X67.864 Y72.391 E8.07008
G1 X67.373 Y72.399 E8.08888
G1 X66.632 Y72.348 E8.1173
G1 X66.193 Y72.28 E8.1343
G1 X65.597 Y72.145 E8.15769
G1 X65.177 Y72.018 E8.17448
G1 X64.558 Y71.778 E8.19989
G1 X64.139 Y71.578 E8.21766
G1 X63.653 Y71.307 E8.23895
G1 X63.066 Y70.907 E8.26613
G1 X62.5 Y70.435 E8.29434
G1 X62.017 Y70.84 E8.31846
G1 X61.697 Y71.073 E8.33361
G1 X61.23 Y71.37 E8.35479
G1 X60.808 Y71.602 E8.37322
G1 X60.088 Y71.917 E8.4033
G1 X59.52 Y72.107 E8.42622
G1 X58.785 Y72.284 E8.45515
G1 X58.348 Y72.35 E8.47206
G1 X57.625 Y72.398 E8.49979
G1 X57.126 Y72.39 E8.51889
G1 X56.443 Y72.326 E8.54515
G1 X55.61 Y72.152 E8.57771
G1 X55.274 Y72.053 E8.59112
G1 X54.758 Y71.864 E8.61215
G1 X53.997 Y71.502 E8.6444
G1 X53.68 Y71.319 E8.65841
G1 X53.185 Y70.987 E8.68122
G1 X52.739 Y70.641 E8.70282
G1 X52.334 Y70.284 E8.72348
G1 X52.085 Y70.036 E8.73693
G1 X51.73 Y69.637 E8.75737
G1 X51.347 Y69.149 E8.78111
G1 X50.852 Y68.401 E8.81544
G1 X50.454 Y67.654 E8.84783
G1 X50.043 Y66.665 E8.88881
G1 X49.84 Y66.077 E8.91262
G1 X49.625 Y65.27 E8.94458
G1 X49.471 Y64.499 E8.97467
G1 X49.363 Y63.731 E9.00435
G1 X49.299 Y62.925 E9.03529
G1 X49.279 Y62.164 E9.06443
G1 X49.326 Y61.048 E9.10717
G1 X49.405 Y60.288 E9.13642
G1 X49.583 Y59.298 E9.17491
G1 X49.832 Y58.329 E9.2132
G1 X49.967 Y57.912 E9.22997
G1 X50.237 Y57.201 E9.25908
G1 X50.554 Y56.506 E9.28831
G1 X50.898 Y55.888 E9.31538
G1 X51.426 Y55.113 E9.35127
G1 X51.715 Y54.749 E9.36906
G1 X51.95 Y54.484 E9.38261
G0 F1620 X52.03 Y54.393
G0 X52.437 Y53.99
G0 F4320 X52.666 Y54.254
G1 F1800 X53.018 Y53.948 E9.40046
G1 X53.679 Y53.461 E9.43188
G1 X54.138 Y53.186 E9.45236
G1 X54.474 Y53.014 E9.4668
G1 X54.966 Y52.802 E9.48731
G1 X55.455 Y52.629 E9.50716
G1 X56.08 Y52.463 E9.53191
G1 X56.489 Y52.389 E9.54781
G1 X57.154 Y52.325 E9.57338
G1 X57.616 Y52.319 E9.59106
G1 X58.389 Y52.384 E9.62075
G1 X59.087 Y52.511 E9.6479
G1 X59.806 Y52.712 E9.67647
G1 X60.571 Y53.036 E9.70826
G1 X61.278 Y53.437 E9.73937
G1 X61.597 Y53.654 E9.75414
G1 X61.988 Y53.957 E9.77307
G1 X62.396 Y54.315 E9.79384
G1 X62.501 Y54.42 E9.79952
G1 X62.758 Y54.175 E9.81311
G1 X63.182 Y53.82 E9.83427
G1 X63.617 Y53.503 E9.85487
G1 X64.296 Y53.101 E9.88507
G1 X64.929 Y52.811 E9.91172
G1 X65.705 Y52.553 E9.94301
G1 X66.513 Y52.388 E9.97457
G1 X66.86 Y52.347 E9.98794
G1 X67.401 Y52.32 E10.00867
G1 X67.868 Y52.328 E10.02655
G1 X68.516 Y52.391 E10.05146
G1 X68.925 Y52.465 E10.06737
G1 X69.659 Y52.66 E10.09644
G1 X70.328 Y52.918 E10.12388
G1 X70.81 Y53.16 E10.14452
G1 X71.271 Y53.432 E10.165
G1 X71.939 Y53.908 E10.19639
G1 X72.449 Y54.359 E10.22245
G1 X72.784 Y54.709 E10.24099
G1 X73.184 Y55.181 E10.26466
G1 X73.645 Y55.816 E10.2947
G1 X73.879 Y56.204 E10.31204
G1 X74.198 Y56.805 E10.33807
G1 X74.49 Y57.446 E10.36503
G1 X74.743 Y58.135 E10.39312
G1 X75.01 Y59.084 E10.43085
G1 X75.202 Y60.041 E10.4682
G1 X75.303 Y60.801 E10.49754
G1 X75.358 Y61.605 E10.52838
G1 X75.363 Y62.624 E10.56738
G1 X75.315 Y63.435 E10.59847
G1 X75.223 Y64.201 E10.628
G1 X75.085 Y64.958 E10.65745
G1 X74.904 Y65.702 E10.68675
G1 X74.619 Y66.587 E10.72233
G1 X74.332 Y67.292 E10.75146
G1 X74.145 Y67.674 E10.76774
G1 X73.844 Y68.215 E10.79143
G1 X73.37 Y68.941 E10.82461
G1 X73.071 Y69.329 E10.84336
G1 X72.477 Y69.974 E10.87692
G1 X72.177 Y70.252 E10.89257
G1 X71.792 Y70.567 E10.91161
G1 X71.375 Y70.867 E10.93127
G1 X70.925 Y71.148 E10.95157
G1 X70.215 Y71.496 E10.98183
G1 X69.84 Y71.643 E10.99724
G1 X69.106 Y71.864 E11.02658
G1 X68.419 Y71.993 E11.05333
G1 X67.859 Y72.041 E11.07484
G1 X67.368 Y72.049 E11.09363
G1 X66.686 Y72.003 E11.11979
G1 X66.247 Y71.935 E11.13679
G1 X65.698 Y71.81 E11.15834
G1 X65.278 Y71.683 E11.17513
G1 X64.709 Y71.462 E11.19849
G1 X64.29 Y71.262 E11.21626
G1 X63.843 Y71.013 E11.23584
G1 X63.282 Y70.631 E11.26182
G1 X62.724 Y70.166 E11.28961
G1 X62.501 Y69.951 E11.30147
G1 X62.166 Y70.266 E11.31907
G1 X61.491 Y70.79 E11.35177
G1 X61.061 Y71.063 E11.37126
G1 X60.639 Y71.295 E11.38969
G1 X59.977 Y71.585 E11.41735
G1 X59.409 Y71.775 E11.44027
G1 X58.733 Y71.938 E11.46688
G1 X58.296 Y72.004 E11.4838
G1 X57.63 Y72.048 E11.50934
G1 X57.131 Y72.04 E11.52844
G1 X56.503 Y71.981 E11.55258
G1 X55.709 Y71.816 E11.58362
G1 X55.373 Y71.717 E11.59702
G1 X54.898 Y71.544 E11.61637
G1 X54.172 Y71.199 E11.64713
G1 X53.855 Y71.016 E11.66114
G1 X53.4 Y70.71 E11.68212
G1 X52.954 Y70.364 E11.70372
G1 X52.581 Y70.036 E11.72273
G1 X52.332 Y69.788 E11.73618
G1 X52.006 Y69.421 E11.75497
G1 X51.623 Y68.933 E11.77871
G1 X51.149 Y68.216 E11.8116
G1 X50.766 Y67.496 E11.84281
G1 X50.368 Y66.536 E11.88258
G1 X50.172 Y65.967 E11.90561
G1 X49.964 Y65.185 E11.93658
G1 X49.814 Y64.434 E11.96589
G1 X49.71 Y63.686 E11.99479
G1 X49.648 Y62.9 E12.02497
G1 X49.629 Y62.158 E12.05337
G1 X49.675 Y61.066 E12.0952
G1 X49.753 Y60.329 E12.12356
G1 X49.927 Y59.364 E12.16109
G1 X50.17 Y58.419 E12.19843
G1 X50.294 Y58.036 E12.21384
G1 X50.564 Y57.325 E12.24294
G1 X50.869 Y56.658 E12.27101
G1 X51.201 Y56.064 E12.29705
G1 X51.712 Y55.316 E12.33172
G1 X52.185 Y54.753 E12.35986
G0 F1620 X52.293 Y54.625
G0 X52.666 Y54.254
G0 F4320 X52.896 Y54.518
G1 F1800 X53.565 Y53.966 E12.39305
G1 X53.878 Y53.749 E12.40763
G1 X54.297 Y53.498 E12.42632
G1 X54.633 Y53.326 E12.44077
G1 X55.082 Y53.132 E12.45948
G1 X55.571 Y52.959 E12.47934
G1 X56.143 Y52.808 E12.50198
G1 X56.552 Y52.734 E12.51788
G1 X57.158 Y52.675 E12.54118
G1 X57.62 Y52.669 E12.55887
G1 X58.326 Y52.728 E12.58598
G1 X59.024 Y52.855 E12.61313
G1 X59.68 Y53.039 E12.6392
G1 X60.407 Y53.345 E12.66939
G1 X61.081 Y53.726 E12.69902
G1 X61.4 Y53.943 E12.71378
G1 X61.757 Y54.22 E12.73108
G1 X62.165 Y54.578 E12.75185
G1 X62.503 Y54.917 E12.77017
G1 X62.983 Y54.443 E12.79599
