; generated by PrusaSlicer 2.2.0+win64 on 2020-05-17 at 01:51:31 UTC

; 

; external perimeters extrusion width = 0.45mm
; perimeters extrusion width = 0.45mm
; infill extrusion width = 0.45mm
; solid infill extrusion width = 0.45mm
; top infill extrusion width = 0.40mm

M201 X9000 Y9000 Z500 E10000 ; sets maximum accelerations, mm/sec^2
M203 X500 Y500 Z12 E120 ; sets maximum feedrates, mm/sec
M204 P1500 R1500 T1500 ; sets acceleration (P, T) and retract acceleration (R), mm/sec^2
M205 X10.00 Y10.00 Z0.20 E2.50 ; sets the jerk limits, mm/sec
M205 S0 T0 ; sets the minimum extruding and travel feed rate, mm/sec
M107
M190 S50 ; set bed temperature and wait for it to be reached
M104 S210 ; set temperature
G28 ; home all axes
G1 Z5 F5000 ; lift nozzle
M109 S210 ; set temperature and wait for it to be reached
G21 ; set units to millimeters
G90 ; use absolute coordinates
M82 ; use absolute distances for extrusion
G92 E0
; Filament gcode
G1 Z0.263 F7200.000
G1 E-3.50000 F2400.00000
G92 E0
G1 X63.207 Y55.569 F7200.000
G1 E3.50000 F2400.00000
G1 F1800.000
G1 X63.534 Y55.234 E3.52010
G1 X63.741 Y55.071 E3.53143
G1 X63.968 Y54.928 E3.54295
G1 X64.169 Y54.830 E3.55257
G1 X64.580 Y54.699 E3.57107
G1 X64.779 Y54.668 E3.57974
G1 X65.126 Y54.663 E3.59463
G1 X65.429 Y54.702 E3.60775
G1 X65.714 Y54.783 E3.62048
G1 X65.898 Y54.860 E3.62905
G1 X66.265 Y55.076 E3.64737
G1 X66.447 Y55.217 E3.65726
G1 X66.624 Y55.380 E3.66757
G1 X66.961 Y55.777 E3.68994
G1 X67.278 Y56.286 E3.71571
G1 X67.536 Y56.849 E3.74233
G1 X67.774 Y57.593 E3.77589
G1 X67.940 Y58.426 E3.81238
G1 X67.990 Y58.841 E3.83034
G1 X68.029 Y59.588 E3.86248
G1 X68.021 Y60.083 E3.88376
G1 X67.985 Y60.575 E3.90494
G1 X67.923 Y61.057 E3.92584
G1 X67.834 Y61.527 E3.94637
G1 X67.717 Y61.984 E3.96662
G1 X67.538 Y62.513 E3.99064
G1 X67.387 Y62.866 E4.00712
G1 X67.219 Y63.190 E4.02281
G1 X67.038 Y63.481 E4.03750
G1 X66.714 Y63.893 E4.06003
G1 X66.324 Y64.249 E4.08275
G1 X66.098 Y64.401 E4.09441
G1 X65.903 Y64.505 E4.10391
G1 X65.623 Y64.615 E4.11687
G1 X65.417 Y64.669 E4.12600
G1 X65.012 Y64.712 E4.14351
G1 X64.642 Y64.680 E4.15947
G1 X64.455 Y64.638 E4.16769
G1 X64.129 Y64.520 E4.18259
G1 X63.946 Y64.426 E4.19143
G1 X63.572 Y64.164 E4.21106
G1 X63.364 Y63.975 E4.22311
G1 X63.191 Y63.784 E4.23420
G1 X62.847 Y63.302 E4.25963
G1 X62.648 Y62.937 E4.27749
G1 X62.374 Y62.271 E4.30843
G1 X62.187 Y61.615 E4.33773
G1 X62.054 Y60.878 E4.36991
G1 X61.991 Y60.285 E4.39554
G1 X61.971 Y59.807 E4.41610
G1 X61.977 Y59.351 E4.43567
G1 X62.021 Y58.733 E4.46231
G1 X62.088 Y58.245 E4.48346
G1 X62.180 Y57.782 E4.50375
G1 X62.293 Y57.350 E4.52292
G1 X62.435 Y56.925 E4.54219
G1 X62.611 Y56.506 E4.56172
G1 X62.773 Y56.191 E4.57694
G1 X62.951 Y55.902 E4.59149
G1 X63.168 Y55.614 E4.60699
G1 X62.912 Y55.309 F7200.000
G1 F1800.000
G1 X63.277 Y54.935 E4.62945
G1 X63.515 Y54.748 E4.64243
G1 X63.777 Y54.584 E4.65571
G1 X64.013 Y54.468 E4.66705
G1 X64.253 Y54.378 E4.67805
G1 X64.499 Y54.313 E4.68896
G1 X64.746 Y54.274 E4.69972
G1 X65.148 Y54.269 E4.71698
G1 X65.508 Y54.315 E4.73257
G1 X65.844 Y54.411 E4.74760
G1 X66.074 Y54.507 E4.75831
G1 X66.486 Y54.749 E4.77884
G1 X66.702 Y54.916 E4.79056
G1 X66.908 Y55.107 E4.80263
G1 X67.275 Y55.538 E4.82693
G1 X67.629 Y56.105 E4.85566
G1 X67.901 Y56.701 E4.88381
G1 X68.040 Y57.093 E4.90167
G1 X68.157 Y57.500 E4.91985
G1 X68.329 Y58.364 E4.95771
G1 X68.382 Y58.807 E4.97689
G1 X68.423 Y59.581 E5.01019
G1 X68.414 Y60.101 E5.03251
G1 X68.377 Y60.615 E5.05465
G1 X68.312 Y61.119 E5.07652
G1 X68.218 Y61.613 E5.09808
G1 X68.094 Y62.096 E5.11950
G1 X67.906 Y62.654 E5.14483
G1 X67.743 Y63.034 E5.16259
G1 X67.562 Y63.385 E5.17955
G1 X67.361 Y63.707 E5.19585
G1 X67.009 Y64.154 E5.22032
G1 X66.792 Y64.372 E5.23350
G1 X66.560 Y64.565 E5.24648
G1 X66.301 Y64.738 E5.25986
G1 X66.069 Y64.863 E5.27120
G1 X65.745 Y64.990 E5.28614
G1 X65.260 Y65.092 E5.30745
G1 X65.006 Y65.107 E5.31838
G1 X64.581 Y65.070 E5.33668
G1 X64.344 Y65.017 E5.34713
G1 X63.971 Y64.881 E5.36417
G1 X63.742 Y64.764 E5.37523
G1 X63.325 Y64.472 E5.39709
G1 X63.085 Y64.254 E5.41103
G1 X62.883 Y64.031 E5.42393
G1 X62.513 Y63.511 E5.45136
G1 X62.295 Y63.112 E5.47089
G1 X62.140 Y62.768 E5.48714
G1 X62.000 Y62.394 E5.50427
G1 X61.804 Y61.704 E5.53509
G1 X61.664 Y60.934 E5.56871
G1 X61.598 Y60.314 E5.59553
G1 X61.578 Y59.812 E5.61708
G1 X61.583 Y59.335 E5.63760
G1 X61.630 Y58.692 E5.66529
G1 X61.699 Y58.180 E5.68748
G1 X61.796 Y57.693 E5.70881
G1 X61.916 Y57.238 E5.72905
G1 X62.067 Y56.786 E5.74951
G1 X62.254 Y56.339 E5.77033
G1 X62.430 Y55.997 E5.78684
G1 X62.624 Y55.682 E5.80274
G1 X62.872 Y55.354 E5.82041
G1 X63.304 Y55.386 F7200.000
G1 E2.32041 F2400.00000
G92 E0
G1 X64.259 Y64.441 F7200.000
G1 E3.50000 F2400.00000
G1 F1800.000
G1 X63.421 Y63.598 E3.55307
G1 X63.098 Y63.145 E3.57795
G1 X62.912 Y62.805 E3.59523
G1 X62.703 Y62.306 E3.61940
G1 X64.793 Y64.397 E3.75146
G1 X65.009 Y64.415 E3.76112
G1 X65.354 Y64.379 E3.77663
G1 X62.465 Y61.490 E3.95913
G1 X62.341 Y60.787 E3.99100
G1 X65.786 Y64.232 E4.20864
G1 X66.146 Y64.013 E4.22745
G1 X62.284 Y60.151 E4.47139
G1 X62.275 Y59.564 E4.49763
G1 X66.450 Y63.739 E4.76137
G1 X66.710 Y63.420 E4.77974
G1 X62.298 Y59.007 E5.05848
G1 X62.353 Y58.484 E5.08197
G1 X66.943 Y63.074 E5.37191
G1 X67.140 Y62.692 E5.39111
G1 X62.439 Y57.991 E5.68804
G1 X62.552 Y57.526 E5.70944
G1 X67.305 Y62.279 E6.00967
G1 X67.448 Y61.843 E6.03017
G1 X62.692 Y57.087 E6.33056
G1 X62.712 Y57.029 E6.33331
G1 X62.860 Y56.676 E6.35040
G1 X67.562 Y61.377 E6.64737
G1 X67.647 Y60.884 E6.66971
G1 X63.057 Y56.294 E6.95969
G1 X63.286 Y55.944 E6.97836
G1 X67.705 Y60.363 E7.25744
G1 X67.730 Y59.809 E7.28219
G1 X63.548 Y55.628 E7.54632
G1 X63.856 Y55.356 E7.56464
G1 X67.714 Y59.214 E7.80834
G1 X67.662 Y58.584 E7.83661
G1 X64.215 Y55.136 E8.05435
G1 X64.455 Y55.038 E8.06598
G1 X64.653 Y54.996 E8.07500
G1 X67.529 Y57.872 E8.25664
G1 X67.487 Y57.663 E8.26616
G1 X67.298 Y57.062 E8.29427
G1 X65.207 Y54.971 E8.42636
G1 X65.369 Y54.992 E8.43367
G1 X65.616 Y55.062 E8.44511
G1 X65.765 Y55.125 E8.45235
G1 X66.100 Y55.321 E8.46967
G1 X66.267 Y55.453 E8.47918
G1 X67.189 Y56.375 E8.53742
G1 E5.03742 F2400.00000
G92 E0
G1 X57.615 Y57.076 F7200.000
G1 E3.50000 F2400.00000
G1 F1800.000
G1 X57.820 Y57.782 E3.53157
G1 X57.912 Y58.245 E3.55187
G1 X57.979 Y58.733 E3.57304
G1 X58.017 Y59.209 E3.59355
G1 X58.029 Y59.809 E3.61933
G1 X58.009 Y60.289 E3.63995
G1 X57.901 Y61.188 E3.67887
G1 X57.734 Y61.922 E3.71123
G1 X57.600 Y62.340 E3.73005
G1 X57.347 Y62.947 E3.75833
G1 X57.190 Y63.241 E3.77266
G1 X56.985 Y63.558 E3.78887
G1 X56.636 Y63.975 E3.81223
G1 X56.428 Y64.164 E3.82430
G1 X56.054 Y64.426 E3.84390
G1 X55.871 Y64.520 E3.85274
G1 X55.544 Y64.638 E3.86770
G1 X55.357 Y64.680 E3.87594
G1 X54.988 Y64.712 E3.89182
G1 X54.583 Y64.669 E3.90934
G1 X54.377 Y64.615 E3.91847
G1 X54.097 Y64.505 E3.93142
G1 X53.676 Y64.249 E3.95256
G1 X53.472 Y64.079 E3.96397
G1 X53.286 Y63.893 E3.97530
G1 X52.962 Y63.481 E3.99783
G1 X52.781 Y63.190 E4.01253
G1 X52.613 Y62.866 E4.02821
G1 X52.462 Y62.513 E4.04469
G1 X52.281 Y61.978 E4.06898
G1 X52.166 Y61.525 E4.08904
G1 X52.078 Y61.063 E4.10924
G1 X51.997 Y60.329 E4.14097
G1 X51.971 Y59.583 E4.17307
G1 X52.010 Y58.843 E4.20487
G1 X52.061 Y58.421 E4.22313
G1 X52.227 Y57.589 E4.25962
G1 X52.333 Y57.221 E4.27607
G1 X52.573 Y56.591 E4.30503
G1 X52.879 Y56.014 E4.33308
G1 X53.040 Y55.775 E4.34547
G1 X53.376 Y55.380 E4.36774
G1 X53.737 Y55.075 E4.38804
G1 X54.103 Y54.860 E4.40626
G1 X54.288 Y54.783 E4.41487
G1 X54.585 Y54.698 E4.42816
G1 X54.775 Y54.668 E4.43643
G1 X55.125 Y54.663 E4.45144
G1 X55.429 Y54.701 E4.46464
G1 X55.831 Y54.830 E4.48274
G1 X56.032 Y54.928 E4.49236
G1 X56.259 Y55.071 E4.50390
G1 X56.653 Y55.410 E4.52624
G1 X57.051 Y55.905 E4.55351
G1 X57.227 Y56.191 E4.56791
G1 X57.389 Y56.506 E4.58313
G1 X57.596 Y57.019 E4.60692
G1 X57.989 Y56.951 F7200.000
G1 F1800.000
G1 X58.204 Y57.693 E4.64011
G1 X58.301 Y58.180 E4.66143
G1 X58.370 Y58.691 E4.68358
G1 X58.410 Y59.189 E4.70508
G1 X58.422 Y59.813 E4.73187
G1 X58.402 Y60.315 E4.75345
G1 X58.358 Y60.786 E4.77377
G1 X58.288 Y61.260 E4.79438
G1 X58.114 Y62.026 E4.82812
G1 X57.970 Y62.476 E4.84840
G1 X57.703 Y63.116 E4.87821
G1 X57.529 Y63.441 E4.89406
G1 X57.306 Y63.786 E4.91167
G1 X56.915 Y64.254 E4.93789
G1 X56.674 Y64.472 E4.95186
G1 X56.258 Y64.764 E4.97369
G1 X56.029 Y64.881 E4.98475
G1 X55.655 Y65.017 E5.00185
G1 X55.417 Y65.070 E5.01232
G1 X54.994 Y65.107 E5.03054
G1 X54.502 Y65.055 E5.05180
G1 X54.255 Y64.990 E5.06278
G1 X53.931 Y64.863 E5.07772
G1 X53.699 Y64.738 E5.08906
G1 X53.440 Y64.565 E5.10244
G1 X53.207 Y64.370 E5.11549
G1 X52.991 Y64.155 E5.12860
G1 X52.639 Y63.707 E5.15307
G1 X52.438 Y63.385 E5.16937
G1 X52.257 Y63.034 E5.18633
G1 X52.094 Y62.654 E5.20409
G1 X51.904 Y62.089 E5.22970
G1 X51.782 Y61.611 E5.25093
G1 X51.689 Y61.122 E5.27231
G1 X51.605 Y60.358 E5.30533
G1 X51.577 Y59.579 E5.33880
G1 X51.617 Y58.810 E5.37190
G1 X51.672 Y58.359 E5.39140
G1 X51.844 Y57.495 E5.42925
G1 X51.959 Y57.096 E5.44711
G1 X52.214 Y56.428 E5.47782
G1 X52.541 Y55.811 E5.50782
G1 X52.727 Y55.536 E5.52206
G1 X53.092 Y55.107 E5.54627
G1 X53.516 Y54.748 E5.57015
G1 X53.926 Y54.507 E5.59059
G1 X54.157 Y54.411 E5.60134
G1 X54.500 Y54.313 E5.61666
G1 X54.742 Y54.275 E5.62716
G1 X55.146 Y54.269 E5.64456
G1 X55.505 Y54.314 E5.66007
G1 X55.987 Y54.468 E5.68180
G1 X56.223 Y54.584 E5.69314
G1 X56.486 Y54.749 E5.70644
G1 X56.723 Y54.935 E5.71940
G1 X56.937 Y55.136 E5.73200
G1 X57.128 Y55.353 E5.74445
G1 X57.377 Y55.683 E5.76219
G1 X57.570 Y55.997 E5.77803
G1 X57.746 Y56.339 E5.79455
G1 X57.970 Y56.894 E5.82028
G1 X57.725 Y57.252 F7200.000
G1 E2.32028 F2400.00000
G92 E0
G1 X54.266 Y64.445 F7200.000
G1 E3.50000 F2400.00000
G1 F1800.000
G1 X53.467 Y63.645 E3.55044
G1 X53.204 Y63.311 E3.56941
G1 X53.038 Y63.044 E3.58341
G1 X52.880 Y62.740 E3.59870
G1 X52.703 Y62.303 E3.61972
G1 X54.794 Y64.395 E3.75165
G1 X54.991 Y64.415 E3.76049
G1 X55.356 Y64.378 E3.77683
G1 X52.460 Y61.482 E3.95951
G1 X52.371 Y61.019 E3.98053
G1 X52.345 Y60.790 E3.99085
G1 X55.787 Y64.231 E4.20795
G1 X56.139 Y64.006 E4.22662
G1 X52.287 Y60.153 E4.46966
G1 X52.268 Y59.557 E4.49628
G1 X56.450 Y63.738 E4.76004
G1 X56.713 Y63.423 E4.77835
G1 X52.297 Y59.007 E5.05691
G1 X52.351 Y58.483 E5.08043
G1 X56.943 Y63.076 E5.37016
G1 X57.135 Y62.689 E5.38941
G1 X52.446 Y58.000 E5.68520
G1 X52.552 Y57.528 E5.70679
G1 X57.305 Y62.281 E6.00662
G1 X57.448 Y61.847 E6.02703
G1 X52.697 Y57.095 E6.32678
G1 X52.860 Y56.680 E6.34666
G1 X57.555 Y61.376 E6.64287
G1 X57.609 Y61.137 E6.65376
G1 X57.640 Y60.882 E6.66523
G1 X53.060 Y56.302 E6.95415
G1 X53.282 Y55.946 E6.97287
G1 X57.702 Y60.367 E7.25171
G1 X57.733 Y59.819 E7.27618
G1 X53.548 Y55.634 E7.54017
G1 X53.851 Y55.359 E7.55842
G1 X57.722 Y59.230 E7.80261
G1 X57.661 Y58.591 E7.83124
G1 X54.210 Y55.140 E8.04897
G1 X54.386 Y55.062 E8.05755
G1 X54.638 Y54.990 E8.06925
G1 X57.541 Y57.893 E8.25241
G1 X57.424 Y57.434 E8.27355
G1 X57.305 Y57.079 E8.29027
G1 X55.196 Y54.969 E8.42333
G1 X55.365 Y54.991 E8.43096
G1 X55.720 Y55.104 E8.44757
G1 X56.089 Y55.313 E8.46648
G1 X56.219 Y55.415 E8.47388
G1 X57.199 Y56.394 E8.53564
G1 Z0.438 F7200.000
G1 E5.03564 F2400.00000
G92 E0
G1 X62.034 Y57.753 F7200.000
G1 E3.50000 F2400.00000
G1 F1800.000
G1 X62.145 Y57.329 E3.51316
G1 X62.294 Y56.879 E3.52738
G1 X62.474 Y56.450 E3.54132
G1 X62.646 Y56.114 E3.55267
G1 X62.827 Y55.820 E3.56301
G1 X63.013 Y55.566 E3.57248
G1 X63.241 Y55.305 E3.58287
G1 X63.654 Y54.951 E3.59920
G1 X63.897 Y54.798 E3.60780
G1 X64.109 Y54.694 E3.61491
G1 X64.345 Y54.607 E3.62245
G1 X64.766 Y54.520 E3.63535
G1 X65.116 Y54.515 E3.64586
G1 X65.465 Y54.558 E3.65639
G1 X65.761 Y54.642 E3.66563
G1 X65.970 Y54.730 E3.67244
G1 X66.175 Y54.840 E3.67942
G1 X66.551 Y55.111 E3.69334
G1 X66.733 Y55.279 E3.70077
G1 X66.980 Y55.561 E3.71201
G1 X67.253 Y55.944 E3.72613
G1 X67.411 Y56.219 E3.73564
G1 X67.674 Y56.794 E3.75462
G1 X67.807 Y57.169 E3.76654
G1 X67.919 Y57.559 E3.77872
G1 X68.088 Y58.412 E3.80483
G1 X68.139 Y58.839 E3.81773
G1 X68.178 Y59.587 E3.84022
G1 X68.169 Y60.090 E3.85530
G1 X68.133 Y60.590 E3.87035
G1 X68.069 Y61.081 E3.88520
G1 X67.979 Y61.560 E3.89983
G1 X67.857 Y62.033 E3.91448
G1 X67.679 Y62.560 E3.93118
G1 X67.522 Y62.927 E3.94315
G1 X67.345 Y63.269 E3.95472
G1 X67.161 Y63.564 E3.96514
G1 X66.827 Y63.989 E3.98137
G1 X66.626 Y64.191 E3.98992
G1 X66.382 Y64.391 E3.99938
G1 X66.174 Y64.529 E4.00686
G1 X65.960 Y64.642 E4.01415
G1 X65.661 Y64.759 E4.02377
G1 X65.234 Y64.848 E4.03687
G1 X65.013 Y64.861 E4.04350
G1 X64.621 Y64.827 E4.05531
G1 X64.419 Y64.782 E4.06153
G1 X64.063 Y64.653 E4.07290
G1 X63.868 Y64.552 E4.07947
G1 X63.476 Y64.278 E4.09384
G1 X63.268 Y64.088 E4.10228
G1 X62.923 Y63.680 E4.11833
G1 X62.721 Y63.381 E4.12913
G1 X62.513 Y62.999 E4.14219
G1 X62.366 Y62.672 E4.15296
G1 X62.227 Y62.298 E4.16495
G1 X62.048 Y61.674 E4.18442
G1 X61.955 Y61.224 E4.19820
G1 X61.883 Y60.728 E4.21326
G1 X61.834 Y60.087 E4.23253
G1 X61.828 Y59.371 E4.25401
G1 X61.871 Y58.746 E4.27283
G1 X61.940 Y58.226 E4.28857
G1 X62.023 Y57.812 E4.30124
G1 X61.630 Y57.673 F7200.000
G1 F1800.000
G1 X61.749 Y57.211 E4.31554
G1 X61.907 Y56.734 E4.33064
G1 X62.099 Y56.276 E4.34553
G1 X62.287 Y55.911 E4.35783
G1 X62.484 Y55.590 E4.36915
G1 X62.691 Y55.308 E4.37966
G1 X62.944 Y55.019 E4.39118
G1 X63.161 Y54.814 E4.40012
G1 X63.416 Y54.613 E4.40987
G1 X63.696 Y54.437 E4.41978
G1 X63.946 Y54.314 E4.42817
G1 X64.221 Y54.213 E4.43696
G1 X64.457 Y54.151 E4.44428
G1 X64.731 Y54.108 E4.45259
G1 X65.139 Y54.102 E4.46484
G1 X65.547 Y54.152 E4.47718
G1 X65.897 Y54.252 E4.48811
G1 X66.148 Y54.357 E4.49626
G1 X66.394 Y54.490 E4.50465
G1 X66.813 Y54.791 E4.52014
G1 X67.029 Y54.991 E4.52897
G1 X67.304 Y55.304 E4.54149
G1 X67.601 Y55.721 E4.55684
G1 X67.778 Y56.030 E4.56752
G1 X68.056 Y56.639 E4.58762
G1 X68.200 Y57.043 E4.60046
G1 X68.320 Y57.461 E4.61353
G1 X68.496 Y58.348 E4.64065
G1 X68.550 Y58.804 E4.65445
G1 X68.590 Y59.580 E4.67776
G1 X68.581 Y60.108 E4.69361
G1 X68.544 Y60.631 E4.70935
G1 X68.477 Y61.146 E4.72493
G1 X68.381 Y61.650 E4.74031
G1 X68.253 Y62.150 E4.75582
G1 X68.065 Y62.707 E4.77346
G1 X67.895 Y63.103 E4.78637
G1 X67.704 Y63.473 E4.79888
G1 X67.500 Y63.801 E4.81048
G1 X67.136 Y64.263 E4.82812
G1 X66.903 Y64.497 E4.83802
G1 X66.628 Y64.723 E4.84872
G1 X66.385 Y64.884 E4.85744
G1 X66.132 Y65.018 E4.86604
G1 X65.789 Y65.152 E4.87711
G1 X65.525 Y65.220 E4.88527
G1 X65.278 Y65.259 E4.89279
G1 X65.007 Y65.274 E4.90092
G1 X64.558 Y65.236 E4.91443
G1 X64.303 Y65.179 E4.92229
G1 X63.897 Y65.031 E4.93525
G1 X63.654 Y64.906 E4.94344
G1 X63.218 Y64.600 E4.95944
G1 X62.970 Y64.375 E4.96947
G1 X62.593 Y63.929 E4.98701
G1 X62.369 Y63.596 E4.99906
G1 X62.143 Y63.183 E5.01318
G1 X61.984 Y62.829 E5.02485
G1 X61.835 Y62.426 E5.03772
G1 X61.647 Y61.773 E5.05812
G1 X61.548 Y61.296 E5.07274
G1 X61.472 Y60.773 E5.08859
G1 X61.421 Y60.105 E5.10871
G1 X61.416 Y59.359 E5.13109
G1 X61.461 Y58.704 E5.15077
G1 X61.533 Y58.159 E5.16729
G1 X61.618 Y57.732 E5.18036
G1 X62.012 Y57.554 F7200.000
G1 X65.800 Y64.572
G1 F3000.000
G1 X66.623 Y63.749 E5.21623
G1 X66.908 Y63.386 E5.23044
G1 X67.076 Y63.116 E5.24024
G1 X67.242 Y62.795 E5.25139
G1 X67.424 Y62.349 E5.26622
G1 X65.247 Y64.525 E5.36106
G1 X65.010 Y64.550 E5.36841
G1 X64.655 Y64.518 E5.37939
G1 X67.675 Y61.499 E5.51096
G1 X67.797 Y60.778 E5.53349
G1 X64.201 Y64.374 E5.69019
G1 X64.028 Y64.287 E5.69614
G1 X63.829 Y64.147 E5.70365
G1 X67.857 Y60.119 E5.87919
G1 X67.864 Y59.513 E5.89786
G1 X63.498 Y63.879 E6.08813
G1 X63.222 Y63.556 E6.10123
G1 X67.834 Y58.943 E6.30221
G1 X67.772 Y58.407 E6.31884
G1 X62.976 Y63.203 E6.52781
G1 X62.768 Y62.812 E6.54145
G1 X67.673 Y57.907 E6.75519
G1 X67.558 Y57.423 E6.77052
G1 X62.591 Y62.390 E6.98696
G1 X62.445 Y61.937 E7.00163
G1 X67.409 Y56.973 E7.21794
G1 X67.387 Y56.910 E7.21999
G1 X67.226 Y56.558 E7.23194
G1 X62.320 Y61.463 E7.44570
G1 X62.228 Y60.956 E7.46158
G1 X67.022 Y56.163 E7.67046
G1 X66.777 Y55.808 E7.68372
G1 X62.169 Y60.416 E7.88452
G1 X62.141 Y59.845 E7.90213
G1 X66.501 Y55.486 E8.09211
G1 X66.355 Y55.351 E8.09822
G1 X66.170 Y55.218 E8.10526
G1 X62.147 Y59.240 E8.28055
